X:7243
T:the Rabbit Men
O:england
R:Hornpipe
N:1991
M:4/4
C:Andy Hornby
A:Lancaster
K:G
(3def | g2d2 d>ed>c | B>cd>B G2B>G | \
A>Bc>A F>GA>F | G>AB>G D2 (3def | \
g2d2 d>ed>c | B>cd>B G2B>G | A>Bc>A  F>GA>F | G2B2G2 :: \
AG | F>GA>B c>AF>A | G>AB>c d2d>B | c>de>f g>fg>e | \
f>ga>f d2e>f | g2d2 d>ed>c | B>cd>B G2B>G | \
A>Bc>A F>GA>F | G2B2G2 :|
W:Copyright (C) Andy Hornby


